X: 261	% 71
T: Bill Vance
S: Viola Ruth "Pioneer Western Folk Tunes" 1948 p.26 #1
R: jig
Z: 2019 John Chambers <jc:trillian.mit.edu>
M: 6/8
L: 1/8
K: G
V: 1 name="71"
|:\
edB edB | G2G B2B | AGE AGE | D3- D2C |\
B,DG GFG | EEE A2G | FEF DEF | G3- G2"^Fine"G :|
|:\
[D2B,2][DB,] DEG | E2E A2G | F2F FED | G2G GAB |\
D2D DEG | E2E A2G | FEF DEF | G3- G2d :|
